;FLAVOR:Marlin
;TIME:8165
;Filament used: 5.74215m
;Layer height: 0.2
;MINX:79.402
;MINY:69.394
;MINZ:0.3
;MAXX:130.598
;MAXY:140.606
;MAXZ:14.975
;TARGET_MACHINE.NAME:Anycubic i3 Mega S/Pro
;Generated with Cura_SteamEngine 5.9.0
M82 ;absolute extrusion mode
;Profil Homepage: https://github.com/NilsRo/Cura_Anycubic_MegaS_Profile

;Slicer Information - (Support for OctoPrint Slicer Estimator)
;Slicer info:material_guid;0ff92885-617b-4144-a03c-9989872454bc
;Slicer info:material_id;generic_pla_175
;Slicer info:material_brand;Generic
;Slicer info:material_name;PLA
;Slicer info:filament_cost;[0.0];Slicer info:material_bed_temperature;60
;Slicer info:material_bed_temperature_layer_0;60
;Slicer info:material_print_temperature;200
;Slicer info:material_print_temperature_layer_0;205
;Slicer info:material_flow;100
;Slicer info:layer_height;0.2
;Slicer info:machine_nozzle_size;0.4
;Slicer info:wall_thickness;1.2000000000000002
;Slicer info:speed_print;50.0
;Slicer info:speed_topbottom;25.0
;Slicer info:travel_speed;100.0
;Slicer info:support;0
;Slicer info:retraction_speed;30
;Slicer info:retraction_amount;6
;Slicer info:layer_height;0.2
;Slicer info:infill_pattern;lines
;Slicer info:infill_sparse_density;30
;Slicer info:cool_fan_enabled;True
;Slicer info:cool_fan_speed;100
;Slicer info:sliced_at;Thu 06-02-2025 23:22:04
G21                                        ; metric values 
G90                                        ; absolute positioning 
M82                                        ; set extruder to absolute mode 
M900 K0                                    ; disable lin. adv. if not set in GCODE
M107                                       ; start with the fan off 
M140 S60   ; Start heating the bed 
G4 S60                                     ; wait 1 minute 
M104 S205 ; start heating the hot end 
M190 S60   ; wait for bed 
M109 S205 ; wait for hotend 
M300 S1000 P500                            ; BEEP heating done 
G28 X0 Y10 Z0                              ; move X/Y to min endstops 
M420 S1                                    ; Enable leveling 
M420 Z2.0                                  ; Set leveling fading height to 2 mm 
G0 Z0.15                                   ; lift nozzle a bit 
G92 E0                                     ; zero the extruded length 
G1 X50 E20 F500                            ; Extrude 20mm of filament in a 5cm line. 
G92 E0                                     ; zero the extruded length again 
G1 E-2 F500                                ; Retract a little 
G1 X50 F500                                ; wipe away from the filament line
G1 X100 F9000                              ; Quickly wipe away from the filament line
G92 E0
G92 E0
G1 F1800 E-6
;LAYER_COUNT:74
;LAYER:0
M106 S76.5
M205 X10 Y10
G1 F480 Z0.375
G0 F6000 X108.762 Y140.417 Z0.375
M205 X8 Y8
;TYPE:SKIRT
G1 F480 Z0.3
G1 F1800 E0
G1 F1200 X107.891 Y140.508 E0.04369
G1 X106.581 Y140.588 E0.10917
G1 X105.505 Y140.606 E0.16286
G1 X103.588 Y140.594 E0.2585
G1 X102.687 Y140.553 E0.3035
G1 X101.618 Y140.461 E0.35703
G1 X100.483 Y140.313 E0.41413
G1 X99.374 Y140.121 E0.47028
G1 X98.363 Y139.902 E0.52189
G1 X97.223 Y139.599 E0.58074
G1 X96.307 Y139.313 E0.62862
G1 X94.728 Y138.73 E0.71259
G1 X94.074 Y138.46 E0.74789
G1 X93.068 Y137.995 E0.80318
G1 X91.888 Y137.379 E0.86959
G1 X91.12 Y136.933 E0.9139
G1 X89.973 Y136.2 E0.98181
G1 X89.071 Y135.56 E1.03699
G1 X88.209 Y134.892 E1.0914
G1 X87.517 Y134.309 E1.13654
G1 X86.743 Y133.608 E1.18864
G1 X85.471 Y132.314 E1.27916
G1 X83.722 Y130.461 E1.40629
G1 X82.591 Y129.342 E1.48566
G1 X82.444 Y129.178 E1.49665
G1 X81.571 Y128.301 E1.55839
G1 X81.023 Y127.673 E1.59997
G1 X80.444 Y126.777 E1.65319
G1 X80.103 Y126.162 E1.68827
G1 X79.794 Y125.355 E1.73139
G1 X79.63 Y124.792 E1.76064
G1 X79.48 Y124.111 E1.79543
G1 X79.412 Y123.323 E1.83489
G1 X79.402 Y122.55 E1.87346
G1 X79.403 Y87.511 E3.62156
G1 X79.413 Y86.854 E3.65434
G1 X79.49 Y86.009 E3.69668
G1 X79.615 Y85.272 E3.73397
G1 X79.776 Y84.597 E3.76859
G1 X80.019 Y83.947 E3.80321
G1 X80.397 Y83.222 E3.844
G1 X81.117 Y82.208 E3.90605
G1 X81.687 Y81.547 E3.94959
G1 X82.384 Y80.847 E3.99888
G1 X83.123 Y80.126 E4.05039
G1 X85.399 Y77.758 E4.21425
G1 X86.747 Y76.392 E4.30999
G1 X87.224 Y75.949 E4.34247
G1 X88.114 Y75.187 E4.40092
G1 X88.955 Y74.526 E4.45429
G1 X89.868 Y73.871 E4.51035
G1 X90.606 Y73.384 E4.55446
G1 X91.565 Y72.805 E4.61035
G1 X92.548 Y72.267 E4.66626
G1 X93.54 Y71.78 E4.72139
G1 X94.423 Y71.392 E4.76951
G1 X96.024 Y70.787 E4.8549
G1 X96.862 Y70.507 E4.89898
G1 X97.731 Y70.26 E4.94405
G1 X98.814 Y69.997 E4.99965
G1 X100.122 Y69.743 E5.06613
G1 X101.238 Y69.583 E5.12237
G1 X102.109 Y69.492 E5.16606
G1 X103.416 Y69.412 E5.23139
G1 X104.495 Y69.394 E5.28523
G1 X106.412 Y69.406 E5.38087
G1 X107.313 Y69.447 E5.42587
G1 X108.382 Y69.539 E5.4794
G1 X109.517 Y69.687 E5.5365
G1 X110.626 Y69.879 E5.59266
G1 X111.637 Y70.098 E5.64426
G1 X112.777 Y70.401 E5.70311
G1 X113.693 Y70.687 E5.75099
G1 X115.272 Y71.27 E5.83496
G1 X115.926 Y71.54 E5.87026
G1 X116.932 Y72.005 E5.92555
G1 X118.108 Y72.619 E5.99174
G1 X119.067 Y73.181 E6.0472
G1 X120.028 Y73.8 E6.10423
G1 X120.928 Y74.44 E6.15932
G1 X121.79 Y75.109 E6.21376
G1 X122.643 Y75.831 E6.26951
G1 X123.176 Y76.319 E6.30557
G1 X124.554 Y77.712 E6.40332
G1 X126.278 Y79.541 E6.52872
G1 X127.409 Y80.659 E6.60806
G1 X127.55 Y80.816 E6.61859
G1 X128.429 Y81.698 E6.68071
G1 X128.977 Y82.326 E6.7223
G1 X129.558 Y83.227 E6.77578
G1 X129.899 Y83.842 E6.81086
G1 X130.21 Y84.654 E6.85425
G1 X130.372 Y85.214 E6.88333
G1 X130.521 Y85.895 E6.91811
G1 X130.585 Y86.633 E6.95507
G1 X130.598 Y87.46 E6.99633
G1 X130.597 Y122.462 E8.74259
G1 X130.587 Y123.143 E8.77657
G1 X130.51 Y123.991 E8.81905
G1 X130.385 Y124.728 E8.85634
G1 X130.224 Y125.403 E8.89096
G1 X129.981 Y126.054 E8.92563
G1 X129.625 Y126.742 E8.96428
G1 X128.847 Y127.825 E9.0308
G1 X128.289 Y128.479 E9.07369
G1 X127.023 Y129.73 E9.16249
G1 X124.708 Y132.133 E9.32896
G1 X123.39 Y133.473 E9.42273
G1 X122.776 Y134.051 E9.4648
G1 X121.886 Y134.813 E9.52325
G1 X121.045 Y135.474 E9.57662
G1 X120.132 Y136.129 E9.63268
G1 X119.394 Y136.616 E9.67679
G1 X118.435 Y137.195 E9.73268
G1 X117.452 Y137.733 E9.78859
G1 X116.46 Y138.22 E9.84372
G1 X115.577 Y138.608 E9.89184
G1 X113.976 Y139.213 E9.97723
G1 X113.138 Y139.493 E10.02131
G1 X112.269 Y139.74 E10.06638
G1 X111.186 Y140.003 E10.12198
G1 X109.878 Y140.257 E10.18846
G1 X108.762 Y140.417 E10.2447
M205 X10 Y10
G0 F6000 X108.72 Y140.019
M205 X8 Y8
G1 F1200 X107.867 Y140.109 E10.28749
G1 X106.574 Y140.188 E10.35212
G1 X105.508 Y140.206 E10.40531
G1 X103.606 Y140.194 E10.50021
G1 X102.721 Y140.154 E10.5444
G1 X101.669 Y140.064 E10.59708
G1 X100.551 Y139.919 E10.65333
G1 X99.459 Y139.73 E10.70862
G1 X98.466 Y139.515 E10.7593
G1 X97.342 Y139.217 E10.81732
G1 X96.446 Y138.938 E10.86414
G1 X94.88 Y138.36 E10.94742
G1 X94.242 Y138.097 E10.98184
G1 X93.253 Y137.64 E11.0362
G1 X92.089 Y137.033 E11.10169
G1 X91.335 Y136.596 E11.14517
G1 X90.204 Y135.874 E11.21211
G1 X89.316 Y135.244 E11.26643
G1 X88.467 Y134.586 E11.32002
G1 X87.786 Y134.013 E11.36443
G1 X87.012 Y133.312 E11.41652
G1 X85.762 Y132.039 E11.50553
G1 X84.013 Y130.186 E11.63266
G1 X82.889 Y129.075 E11.7115
G1 X82.742 Y128.911 E11.72249
G1 X81.871 Y128.037 E11.78405
G1 X81.359 Y127.456 E11.82269
G1 X80.793 Y126.581 E11.87468
G1 X80.477 Y126.019 E11.90684
G1 X80.168 Y125.212 E11.94996
G1 X80.02 Y124.704 E11.97635
G1 X79.878 Y124.076 E12.00847
G1 X79.812 Y123.318 E12.04643
G1 X79.802 Y122.55 E12.08475
G1 X79.803 Y87.517 E13.83256
G1 X79.813 Y86.86 E13.86534
G1 X79.884 Y86.075 E13.90466
G1 X80.004 Y85.363 E13.94069
G1 X80.151 Y84.735 E13.97286
G1 X80.374 Y84.13 E14.00503
G1 X80.723 Y83.454 E14.04299
G1 X81.443 Y82.44 E14.10503
G1 X81.989 Y81.809 E14.14666
G1 X82.663 Y81.133 E14.19429
G1 X83.402 Y80.412 E14.2458
G1 X85.684 Y78.039 E14.41005
G1 X87.02 Y76.685 E14.50494
G1 X87.484 Y76.253 E14.53657
G1 X88.361 Y75.501 E14.59421
G1 X89.188 Y74.851 E14.64669
G1 X90.088 Y74.205 E14.70196
G1 X90.813 Y73.726 E14.74531
G1 X91.757 Y73.156 E14.80033
G1 X92.724 Y72.626 E14.85534
G1 X93.701 Y72.146 E14.90965
G1 X94.565 Y71.766 E14.95674
G1 X96.15 Y71.166 E15.04129
G1 X96.972 Y70.892 E15.08452
G1 X97.825 Y70.649 E15.12877
G1 X98.891 Y70.39 E15.1835
G1 X100.179 Y70.139 E15.24897
G1 X101.28 Y69.981 E15.30446
G1 X102.133 Y69.891 E15.34725
G1 X103.423 Y69.812 E15.41173
G1 X104.492 Y69.794 E15.46507
G1 X106.394 Y69.806 E15.55996
G1 X107.279 Y69.846 E15.60416
G1 X108.331 Y69.936 E15.65684
G1 X109.449 Y70.081 E15.71308
G1 X110.541 Y70.27 E15.76837
G1 X111.534 Y70.485 E15.81906
G1 X112.658 Y70.783 E15.87707
G1 X113.554 Y71.062 E15.92389
G1 X115.12 Y71.64 E16.00717
G1 X115.758 Y71.903 E16.0416
G1 X116.747 Y72.36 E16.09595
G1 X117.906 Y72.964 E16.16116
G1 X118.85 Y73.517 E16.21574
G1 X119.796 Y74.126 E16.27187
G1 X120.683 Y74.756 E16.32615
G1 X121.532 Y75.414 E16.37974
G1 X122.373 Y76.126 E16.43471
G1 X122.892 Y76.6 E16.46978
G1 X124.263 Y77.986 E16.56704
G1 X125.989 Y79.817 E16.69258
G1 X127.111 Y80.926 E16.77129
G1 X127.252 Y81.083 E16.78181
G1 X128.129 Y81.963 E16.8438
G1 X128.641 Y82.543 E16.88239
G1 X129.209 Y83.423 E16.93465
G1 X129.525 Y83.985 E16.96682
G1 X129.836 Y84.797 E17.0102
G1 X129.982 Y85.301 E17.03637
G1 X130.122 Y85.93 E17.06852
G1 X130.186 Y86.668 E17.10548
G1 X130.198 Y87.46 E17.145
G1 X130.197 Y122.456 E18.89096
G1 X130.187 Y123.137 E18.92493
G1 X130.116 Y123.925 E18.96441
G1 X129.996 Y124.637 E19.00043
G1 X129.849 Y125.265 E19.03261
G1 X129.626 Y125.87 E19.06478
G1 X129.27 Y126.558 E19.10342
G1 X128.542 Y127.566 E19.16546
G1 X128.008 Y128.194 E19.20658
G1 X126.742 Y129.445 E19.29538
G1 X124.42 Y131.856 E19.46238
G1 X123.116 Y133.182 E19.55516
G1 X122.516 Y133.747 E19.59628
G1 X121.639 Y134.499 E19.65392
G1 X120.812 Y135.149 E19.70639
G1 X119.912 Y135.795 E19.76166
G1 X119.187 Y136.274 E19.80502
G1 X118.243 Y136.844 E19.86003
G1 X117.276 Y137.374 E19.91505
G1 X116.299 Y137.854 E19.96935
G1 X115.435 Y138.234 E20.01644
G1 X113.85 Y138.834 E20.101
G1 X113.028 Y139.108 E20.14422
G1 X112.175 Y139.351 E20.18847
G1 X111.109 Y139.61 E20.2432
G1 X109.821 Y139.861 E20.30867
G1 X108.72 Y140.019 E20.36416
M205 X10 Y10
G1 F1800 E14.36416
G1 F480 Z0.375
;MESH:WeightSense.stl
G0 F6000 X108.291 Y133.824 Z0.375
M205 X8 Y8
;TYPE:WALL-INNER
G1 F480 Z0.3
G1 F1800 E20.36416
G1 F1200 X109.168 Y133.684 E20.40847
G1 X109.979 Y133.516 E20.44979
G1 X110.759 Y133.316 E20.48996
G1 X111.583 Y133.065 E20.53294
G1 X112.356 Y132.795 E20.57379
G1 X113.055 Y132.514 E20.61137
G1 X113.854 Y132.156 E20.65506
G1 X114.595 Y131.784 E20.69642
G1 X115.316 Y131.382 E20.73761
G1 X116.018 Y130.945 E20.77886
G1 X116.698 Y130.482 E20.8199
G1 X117.364 Y129.983 E20.86142
G1 X118.004 Y129.461 E20.90262
G1 X118.599 Y128.935 E20.94225
G1 X119.21 Y128.338 E20.98486
G1 X119.78 Y127.734 E21.0263
G1 X120.321 Y127.106 E21.06765
G1 X120.833 Y126.46 E21.10878
G1 X121.469 Y125.577 E21.16307
G1 X121.932 Y125.034 E21.19867
G1 X122.771 Y124.285 E21.25478
G1 X123.649 Y123.767 E21.30564
G1 X123.93 Y123.383 E21.32938
G1 X123.996 Y123.005 E21.34852
G1 X123.996 Y87.021 E23.14377
G1 X123.908 Y86.622 E23.16415
G1 X123.677 Y86.257 E23.1857
G1 X122.75 Y85.695 E23.23979
G1 X121.93 Y84.965 E23.29456
G1 X121.478 Y84.429 E23.32954
G1 X120.834 Y83.536 E23.38447
G1 X120.322 Y82.891 E23.42555
G1 X119.781 Y82.267 E23.46676
G1 X119.209 Y81.661 E23.50833
G1 X118.597 Y81.06 E23.55113
G1 X118.004 Y80.534 E23.59067
G1 X117.36 Y80.009 E23.63212
G1 X116.698 Y79.515 E23.67333
G1 X116.019 Y79.051 E23.71436
G1 X115.313 Y78.615 E23.75576
G1 X114.59 Y78.212 E23.79706
G1 X113.853 Y77.839 E23.83827
G1 X113.101 Y77.502 E23.87938
G1 X112.356 Y77.205 E23.91939
G1 X111.55 Y76.919 E23.96206
G1 X110.76 Y76.684 E24.00318
G1 X109.945 Y76.475 E24.04516
G1 X109.126 Y76.305 E24.08689
G1 X108.266 Y76.165 E24.13036
G1 F1176.5 X107.189 Y76.04 E24.18553
G1 F973.6 X106.729 Y76.104 E24.21409
G1 F907.4 X105.748 Y76.027 E24.27901
G1 F991.7 X104.271 Y76.029 E24.36818
G1 F952.4 X103.681 Y76.067 E24.40534
G1 F1021.3 X103.314 Y76.02 E24.42703
G1 F1182.3 X102.469 Y76.078 E24.46992
G1 F1200 X101.704 Y76.172 E24.50838
G1 X100.828 Y76.312 E24.55263
G1 X100.022 Y76.484 E24.59375
G1 X99.208 Y76.692 E24.63567
G1 X98.444 Y76.92 E24.67544
G1 X97.64 Y77.201 E24.71793
G1 X96.896 Y77.5 E24.75794
G1 X96.142 Y77.84 E24.7992
G1 X95.402 Y78.212 E24.84052
G1 X94.685 Y78.614 E24.88153
G1 X93.982 Y79.051 E24.92283
G1 X93.301 Y79.515 E24.96394
G1 X92.633 Y80.013 E25.00551
G1 X91.997 Y80.534 E25.04653
G1 X91.398 Y81.065 E25.08647
G1 X90.785 Y81.662 E25.12915
G1 X90.214 Y82.267 E25.17066
G1 X89.676 Y82.89 E25.21173
G1 X89.167 Y83.535 E25.25272
G1 X88.528 Y84.418 E25.3071
G1 X88.069 Y84.961 E25.34257
G1 X87.232 Y85.708 E25.39854
G1 X86.346 Y86.23 E25.44984
G1 X86.066 Y86.614 E25.47355
G1 X86 Y86.991 E25.49265
G1 X86 Y122.975 E27.2879
G1 X86.088 Y123.374 E27.30828
G1 X86.322 Y123.745 E27.33016
G1 X87.243 Y124.302 E27.38386
G1 X88.064 Y125.03 E27.43861
G1 X88.548 Y125.602 E27.47599
G1 X89.167 Y126.461 E27.52881
G1 X89.677 Y127.108 E27.56991
G1 X90.216 Y127.734 E27.61113
G1 X90.786 Y128.338 E27.65256
G1 X91.396 Y128.934 E27.69511
G1 X91.996 Y129.461 E27.73495
G1 X92.633 Y129.983 E27.77604
G1 X93.301 Y130.481 E27.81761
G1 X93.982 Y130.945 E27.85872
G1 X94.685 Y131.383 E27.90004
G1 X95.402 Y131.784 E27.94103
G1 X96.142 Y132.156 E27.98235
G1 X96.895 Y132.495 E28.02355
G1 X97.64 Y132.791 E28.06354
G1 X98.449 Y133.077 E28.10635
G1 X99.236 Y133.316 E28.14738
G1 X100.049 Y133.521 E28.18921
G1 X100.869 Y133.691 E28.23099
G1 X101.732 Y133.835 E28.27464
G1 X102.494 Y133.92 E28.3129
G1 X103.32 Y133.98 E28.35421
G1 F1098.4 X104.145 Y133.972 E28.39918
G1 F1000 X104.201 Y133.965 E28.40256
G1 F1023.5 X105.084 Y133.975 E28.45422
G1 F1030 X105.732 Y133.968 E28.49188
G1 F950.5 X106.315 Y133.929 E28.52869
G1 F1021.3 X106.686 Y133.976 E28.55061
G1 F1182.3 X107.522 Y133.919 E28.59304
G1 F1200 X108.291 Y133.824 E28.6317
M205 X10 Y10
G0 F6000 X108.354 Y134.219
M205 X8 Y8
G1 F1200 X109.249 Y134.076 E28.67692
G1 X110.045 Y133.911 E28.71747
G1 X110.867 Y133.701 E28.7598
G1 X111.674 Y133.457 E28.80186
G1 X112.496 Y133.17 E28.8453
G1 X113.256 Y132.863 E28.88619
G1 X114.026 Y132.518 E28.92829
G1 X114.783 Y132.137 E28.97057
G1 X115.519 Y131.726 E29.01262
G1 X116.236 Y131.281 E29.05472
G1 X116.931 Y130.807 E29.09669
G1 X117.61 Y130.299 E29.139
G1 X118.263 Y129.766 E29.18105
G1 X118.871 Y129.228 E29.22156
G1 X119.496 Y128.619 E29.26509
G1 X120.078 Y128.002 E29.30741
G1 X120.629 Y127.361 E29.34958
G1 X121.153 Y126.702 E29.39159
G1 X121.768 Y125.845 E29.44421
G1 X122.196 Y125.341 E29.4772
G1 X123.001 Y124.615 E29.53128
G1 X123.924 Y124.07 E29.58476
G1 X124.308 Y123.543 E29.61729
G1 X124.396 Y123.04 E29.64277
G1 X124.396 Y86.977 E31.44196
G1 X124.284 Y86.468 E31.46796
G1 X123.966 Y85.965 E31.49765
G1 X122.989 Y85.373 E31.55464
G1 X122.193 Y84.656 E31.60809
G1 X121.791 Y84.179 E31.63921
G1 X121.153 Y83.295 E31.6936
G1 X120.63 Y82.636 E31.73557
G1 X120.078 Y81.999 E31.77762
G1 X119.495 Y81.381 E31.82001
G1 X118.87 Y80.768 E31.86369
G1 X118.263 Y80.23 E31.90415
G1 X117.606 Y79.693 E31.94649
G1 X116.931 Y79.189 E31.98851
G1 X116.237 Y78.716 E32.03041
G1 X115.515 Y78.27 E32.07275
G1 X114.778 Y77.858 E32.11488
G1 X114.025 Y77.478 E32.15696
G1 X113.257 Y77.133 E32.19896
G1 X112.496 Y76.83 E32.23983
G1 X111.674 Y76.539 E32.28333
G1 X110.867 Y76.299 E32.32534
G1 X110.035 Y76.085 E32.3682
G1 X109.218 Y75.915 E32.40983
G1 X108.313 Y75.768 E32.45557
G1 X107.55 Y75.678 E32.4939
G1 X106.708 Y75.616 E32.53602
G1 X105.847 Y75.588 E32.579
G1 X104.929 Y75.6 E32.6248
G1 X104.119 Y75.589 E32.66522
G1 X103.277 Y75.616 E32.70725
G1 X102.421 Y75.681 E32.75008
G1 X101.642 Y75.777 E32.78923
G1 X100.777 Y75.915 E32.83294
G1 X99.923 Y76.096 E32.87649
G1 X99.128 Y76.299 E32.91742
G1 X98.321 Y76.54 E32.95944
G1 X97.5 Y76.826 E33.00282
G1 X96.74 Y77.132 E33.04369
G1 X95.97 Y77.478 E33.08581
G1 X95.214 Y77.859 E33.12804
G1 X94.482 Y78.269 E33.1699
G1 X93.764 Y78.715 E33.21207
G1 X93.069 Y79.189 E33.25404
G1 X92.386 Y79.697 E33.29651
G1 X91.738 Y80.229 E33.33834
