;FLAVOR:Marlin
;TIME:4741
;Filament used: 3.41648m
;Layer height: 0.2
;MINX:85.2
;MINY:75.188
;MINZ:0.3
;MAXX:124.8
;MAXY:134.808
;MAXZ:14.975
;TARGET_MACHINE.NAME:Anycubic i3 Mega S/Pro
;Generated with Cura_SteamEngine 5.9.0
M82 ;absolute extrusion mode
;Profil Homepage: https://github.com/NilsRo/Cura_Anycubic_MegaS_Profile

;Slicer Information - (Support for OctoPrint Slicer Estimator)
;Slicer info:material_guid;0ff92885-617b-4144-a03c-9989872454bc
;Slicer info:material_id;generic_pla_175
;Slicer info:material_brand;Generic
;Slicer info:material_name;PLA
;Slicer info:filament_cost;[0.0];Slicer info:material_bed_temperature;60
;Slicer info:material_bed_temperature_layer_0;60
;Slicer info:material_print_temperature;200
;Slicer info:material_print_temperature_layer_0;205
;Slicer info:material_flow;100
;Slicer info:layer_height;0.2
;Slicer info:machine_nozzle_size;0.4
;Slicer info:wall_thickness;1.2000000000000002
;Slicer info:speed_print;50.0
;Slicer info:speed_topbottom;25.0
;Slicer info:travel_speed;100.0
;Slicer info:support;0
;Slicer info:retraction_speed;30
;Slicer info:retraction_amount;6
;Slicer info:layer_height;0.2
;Slicer info:infill_pattern;cubic
;Slicer info:infill_sparse_density;25
;Slicer info:cool_fan_enabled;True
;Slicer info:cool_fan_speed;100
;Slicer info:sliced_at;Sat 08-02-2025 00:20:42
G21                                        ; metric values 
G90                                        ; absolute positioning 
M82                                        ; set extruder to absolute mode 
M900 K0                                    ; disable lin. adv. if not set in GCODE
M107                                       ; start with the fan off 
M140 S60   ; Start heating the bed 
G4 S60                                     ; wait 1 minute 
M104 S205 ; start heating the hot end 
M190 S60   ; wait for bed 
M109 S205 ; wait for hotend 
M300 S1000 P500                            ; BEEP heating done 
G28 X0 Y10 Z0                              ; move X/Y to min endstops 
M420 S1                                    ; Enable leveling 
M420 Z2.0                                  ; Set leveling fading height to 2 mm 
G0 Z0.15                                   ; lift nozzle a bit 
G92 E0                                     ; zero the extruded length 
G1 X50 E20 F500                            ; Extrude 20mm of filament in a 5cm line. 
G92 E0                                     ; zero the extruded length again 
G1 E-2 F500                                ; Retract a little 
G1 X50 F500                                ; wipe away from the filament line
G1 X100 F9000                              ; Quickly wipe away from the filament line
G92 E0
G92 E0
G1 F1800 E-6
;LAYER_COUNT:74
;LAYER:0
M106 S76.5
M205 X10 Y10
G1 F480 Z0.375
;MESH:shaftweightsense.stl
G0 F6000 X105.864 Y86.427 Z0.375
M205 X8 Y8
;TYPE:WALL-INNER
G1 F480 Z0.3
G1 F1800 E0
G1 F1200 X104.976 Y86.496 E0.04444
G1 X104.145 Y86.431 E0.08602
G1 X103.504 Y86.272 E0.11897
G1 X102.726 Y85.952 E0.16094
G1 X102.134 Y85.604 E0.1952
G1 X101.44 Y85.037 E0.23991
G1 X100.777 Y84.214 E0.29264
G1 X100.283 Y83.213 E0.34833
G1 X100.072 Y82.36 E0.39217
G1 X99.996 Y81.491 E0.43569
G1 X100.067 Y80.678 E0.4764
G1 X100.224 Y79.993 E0.51146
G1 X100.534 Y79.248 E0.55172
G1 X100.898 Y78.633 E0.58737
G1 X101.45 Y77.946 E0.63134
G1 F1170.7 X102.281 Y77.277 E0.6859
G1 F1121.5 X103.169 Y76.811 E0.73943
G1 F948.6 X103.365 Y76.668 E0.75474
G1 F895.5 X104.077 Y76.532 E0.8032
G1 F1012.7 X105.013 Y76.475 E0.85864
G1 X105.903 Y76.532 E0.91136
G1 F1071.4 X106.521 Y76.733 E0.94768
G1 F1200 X107.254 Y77.037 E0.98727
G1 X107.83 Y77.379 E1.02069
G1 X108.551 Y77.946 E1.06645
G1 X109.219 Y78.79 E1.12015
G1 X109.707 Y79.755 E1.1741
G1 X109.925 Y80.62 E1.2186
G1 X110 Y81.484 E1.26187
G1 X109.928 Y82.35 E1.30522
G1 X109.775 Y82.981 E1.33762
G1 X109.451 Y83.772 E1.38026
G1 X109.124 Y84.326 E1.41236
G1 X108.558 Y85.04 E1.45781
G1 X107.705 Y85.726 E1.51243
G1 X106.71 Y86.22 E1.56785
G1 X105.864 Y86.427 E1.6113
M205 X10 Y10
G0 F6000 X105.781 Y86.032
M205 X8 Y8
G1 F1200 X104.987 Y86.096 E1.65104
G1 X104.21 Y86.035 E1.68992
G1 X103.622 Y85.89 E1.72014
G1 X102.898 Y85.59 E1.75924
G1 X102.37 Y85.277 E1.78986
G1 X101.747 Y84.772 E1.82987
G1 X101.106 Y83.984 E1.88055
G1 X100.659 Y83.077 E1.931
G1 X100.466 Y82.305 E1.9707
G1 X100.4 Y81.52 E2.01
G1 X100.464 Y80.728 E2.04964
G1 X100.608 Y80.111 E2.08125
G1 X100.9 Y79.411 E2.11909
G1 X101.207 Y78.896 E2.149
G1 X101.733 Y78.232 E2.19126
G1 X102.512 Y77.606 E2.24112
G1 X103.413 Y77.158 E2.29132
G1 X104.169 Y76.972 E2.33016
G1 X105.004 Y76.9 E2.37198
G1 X105.813 Y76.971 E2.41249
G1 X106.391 Y77.111 E2.44216
G1 X107.089 Y77.401 E2.47987
G1 X107.614 Y77.715 E2.51039
G1 X108.265 Y78.229 E2.55178
G1 X108.884 Y79.008 E2.60142
G1 X109.339 Y79.924 E2.65244
G1 X109.532 Y80.718 E2.69321
G1 X109.596 Y81.515 E2.7331
G1 X109.535 Y82.286 E2.77168
G1 X109.392 Y82.867 E2.80154
G1 X109.09 Y83.599 E2.84104
G1 X108.746 Y84.168 E2.87421
G1 X108.263 Y84.768 E2.91264
G1 X107.487 Y85.384 E2.96207
G1 X106.578 Y85.84 E3.01281
G1 X105.781 Y86.032 E3.05371
M205 X10 Y10
G1 F1800 E-2.94629
G1 F480 Z0.375
G0 F6000 X111.821 Y115.58 Z0.375
M205 X8 Y8
G1 F480 Z0.3
G1 F1800 E3.05371
G1 F1200 X110.895 Y115.7 E3.10029
G1 X109.958 Y115.736 E3.14707
G1 X108.795 Y115.683 E3.20516
G1 X107.692 Y115.485 E3.26107
G1 X106.76 Y115.239 E3.30916
G1 X105.85 Y114.903 E3.35755
G1 X104.794 Y114.406 E3.41578
G1 X103.847 Y113.805 E3.47174
G1 X102.913 Y113.086 E3.53054
G1 X101.922 Y112.096 E3.60043
G1 X101.177 Y111.123 E3.66156
G1 X100.569 Y110.17 E3.71796
G1 X99.977 Y108.889 E3.78837
G1 X99.61 Y107.729 E3.84907
G1 X99.43 Y106.901 E3.89134
G1 X99.296 Y105.895 E3.94197
G1 X99.26 Y104.962 E3.98856
G1 X99.307 Y103.833 E4.04493
G1 X99.507 Y102.712 E4.10174
G1 X99.769 Y101.727 E4.15259
G1 X100.092 Y100.855 E4.19898
G1 X100.569 Y99.824 E4.25566
G1 X101.181 Y98.868 E4.31229
G1 X101.906 Y97.914 E4.37207
G1 X102.913 Y96.907 E4.44312
G1 X103.82 Y96.214 E4.50007
G1 X104.819 Y95.575 E4.55923
G1 X106.116 Y94.975 E4.63053
G1 X107.222 Y94.625 E4.6884
G1 X108.175 Y94.416 E4.73708
G1 X109.102 Y94.296 E4.78371
G1 X110.042 Y94.26 E4.83064
G1 X111.2 Y94.313 E4.88847
G1 X112.373 Y94.526 E4.94795
G1 X113.211 Y94.749 E4.99122
G1 X114.075 Y95.063 E5.03708
G1 X115.171 Y95.569 E5.09731
G1 X116.128 Y96.181 E5.15398
G1 X117.082 Y96.906 E5.21376
G1 X118.087 Y97.911 E5.28467
G1 X118.82 Y98.871 E5.34493
G1 X119.428 Y99.828 E5.40149
G1 X120.019 Y101.107 E5.47178
G1 X120.386 Y102.268 E5.53253
G1 X120.58 Y103.178 E5.57895
G1 X120.7 Y104.101 E5.62539
G1 X120.736 Y105.038 E5.67217
G1 X120.689 Y106.164 E5.7284
G1 X120.471 Y107.37 E5.78954
G1 X120.227 Y108.269 E5.83601
G1 X119.904 Y109.141 E5.8824
G1 X119.429 Y110.167 E5.93881
G1 X118.82 Y111.123 E5.99536
G1 X118.085 Y112.087 E6.05584
G1 X117.085 Y113.087 E6.1264
G1 X116.125 Y113.821 E6.18669
G1 X115.167 Y114.429 E6.24329
G1 X113.903 Y115.012 E6.31274
G1 X112.788 Y115.372 E6.37119
G1 X111.821 Y115.58 E6.42054
M205 X10 Y10
G0 F6000 X111.792 Y115.179
M205 X8 Y8
G1 F1200 X110.878 Y115.3 E6.46654
G1 X110.024 Y115.336 E6.50918
G1 X108.851 Y115.287 E6.56776
G1 X107.734 Y115.085 E6.62439
G1 X106.885 Y114.859 E6.66822
G1 X106.019 Y114.541 E6.71424
G1 X105.055 Y114.093 E6.76728
G1 X104.071 Y113.473 E6.8253
G1 X103.178 Y112.786 E6.88151
G1 X102.217 Y111.826 E6.94928
G1 X101.543 Y110.949 E7.00446
G1 X100.903 Y109.94 E7.06408
G1 X100.34 Y108.711 E7.13152
G1 X100.001 Y107.644 E7.18737
G1 X99.821 Y106.816 E7.22965
G1 X99.696 Y105.878 E7.27686
G1 X99.66 Y105.03 E7.3192
G1 X99.713 Y103.834 E7.37893
G1 X99.911 Y102.734 E7.43469
G1 X100.144 Y101.865 E7.47958
G1 X100.455 Y101.023 E7.52436
G1 X100.942 Y99.984 E7.58161
G1 X101.518 Y99.084 E7.63492
G1 X102.235 Y98.151 E7.69362
G1 X103.151 Y97.235 E7.75825
G1 X104.067 Y96.529 E7.81595
G1 X105.014 Y95.924 E7.87201
G1 X106.287 Y95.339 E7.94191
G1 X107.299 Y95.019 E7.99486
G1 X108.228 Y94.813 E8.04233
G1 X109.097 Y94.697 E8.08607
G1 X110.025 Y94.66 E8.13241
G1 X111.144 Y94.709 E8.18829
G1 X112.218 Y94.901 E8.24272
G1 X113.13 Y95.144 E8.28981
G1 X113.977 Y95.455 E8.33482
G1 X115.012 Y95.942 E8.39189
G1 X115.912 Y96.518 E8.4452
G1 X116.845 Y97.235 E8.5039
G1 X117.761 Y98.151 E8.56853
G1 X118.483 Y99.086 E8.62747
G1 X119.055 Y99.986 E8.68067
G1 X119.656 Y101.285 E8.75208
G1 X119.995 Y102.353 E8.80798
G1 X120.175 Y103.185 E8.85045
G1 X120.3 Y104.118 E8.89741
G1 X120.336 Y105.021 E8.9425
G1 X120.292 Y106.081 E8.99543
G1 X120.095 Y107.218 E9.053
G1 X119.852 Y108.131 E9.10014
G1 X119.541 Y108.973 E9.14492
G1 X119.093 Y109.941 E9.19813
G1 X118.453 Y110.949 E9.2577
G1 X117.761 Y111.845 E9.31418
G1 X116.845 Y112.761 E9.37881
G1 X115.91 Y113.483 E9.43775
G1 X115.01 Y114.055 E9.49095
G1 X113.753 Y114.641 E9.56014
G1 X112.681 Y114.987 E9.61634
G1 X111.792 Y115.179 E9.66172
M205 X10 Y10
G1 F1800 E3.66172
G1 F480 Z0.375
G0 F6000 X108.296 Y133.823 Z0.375
M205 X8 Y8
G1 F480 Z0.3
G1 F1800 E9.66172
G1 F1200 X109.168 Y133.684 E9.70577
G1 X109.979 Y133.515 E9.7471
G1 X110.759 Y133.316 E9.78726
G1 X111.55 Y133.077 E9.82849
G1 X112.356 Y132.795 E9.87109
G1 X113.1 Y132.495 E9.91111
G1 X113.854 Y132.156 E9.95235
G1 X114.595 Y131.784 E9.99372
G1 X115.316 Y131.382 E10.0349
G1 X116.018 Y130.945 E10.07616
G1 X116.698 Y130.482 E10.1172
G1 X117.363 Y129.983 E10.15868
G1 X118.004 Y129.461 E10.19992
G1 X118.599 Y128.935 E10.23954
G1 X119.21 Y128.338 E10.28216
G1 X119.781 Y127.734 E10.32363
G1 X120.321 Y127.106 E10.36495
G1 X120.834 Y126.46 E10.40611
G1 X121.625 Y125.364 E10.47354
G1 X122.267 Y124.709 E10.5193
G1 X122.92 Y124.2 E10.5606
G1 X123.647 Y123.769 E10.60277
G1 X123.93 Y123.38 E10.62677
G1 X123.996 Y123.005 E10.64576
G1 X123.996 Y87.02 E12.44106
G1 X123.908 Y86.622 E12.4614
G1 X123.676 Y86.253 E12.48314
G1 X123.065 Y85.884 E12.51875
G1 X122.125 Y85.184 E12.57723
G1 X121.494 Y84.452 E12.62544
G1 X120.833 Y83.535 E12.68184
G1 X120.322 Y82.891 E12.72285
G1 X119.781 Y82.267 E12.76406
G1 X119.209 Y81.661 E12.80563
G1 X118.597 Y81.06 E12.84842
G1 X118.004 Y80.534 E12.88797
G1 X117.36 Y80.009 E12.92942
G1 X116.698 Y79.515 E12.97063
G1 X116.019 Y79.051 E13.01166
G1 X115.313 Y78.615 E13.05306
G1 X114.59 Y78.212 E13.09435
G1 X113.853 Y77.839 E13.13556
G1 X113.101 Y77.502 E13.17668
G1 X112.356 Y77.205 E13.21669
G1 X111.55 Y76.919 E13.25936
G1 X110.734 Y76.678 E13.30181
G1 X109.93 Y76.474 E13.34319
G1 X109.144 Y76.308 E13.38327
G1 X108.267 Y76.165 E13.4276
G1 X107.501 Y76.075 E13.46608
G1 X106.52 Y76.008 E13.51514
G1 F1071.4 X105.96 Y76.04 E13.54648
G1 F1010.5 X104.888 Y76.025 E13.60999
G1 F1016.9 X104.133 Y76.034 E13.65444
G1 F902.3 X103.277 Y76.104 E13.71143
G1 F967.7 X102.798 Y76.037 E13.74135
G1 F1170.7 X101.694 Y76.174 E13.79824
G1 F1200 X100.829 Y76.312 E13.84194
G1 X100.022 Y76.484 E13.88311
G1 X99.208 Y76.692 E13.92502
G1 X98.444 Y76.92 E13.9648
G1 X97.639 Y77.201 E14.00734
G1 X96.896 Y77.5 E14.0473
G1 X96.142 Y77.839 E14.08854
G1 X95.402 Y78.212 E14.12989
G1 X94.685 Y78.614 E14.1709
G1 X93.982 Y79.051 E14.21219
G1 X93.301 Y79.515 E14.2533
G1 X92.633 Y80.013 E14.29487
G1 X91.997 Y80.534 E14.33589
G1 X91.397 Y81.065 E14.37586
G1 X90.786 Y81.662 E14.41848
G1 X90.214 Y82.267 E14.46002
G1 X89.676 Y82.89 E14.50109
G1 X89.167 Y83.535 E14.54208
G1 X88.343 Y84.67 E14.61205
G1 X87.768 Y85.248 E14.65273
G1 X87.09 Y85.791 E14.69607
G1 X86.351 Y86.229 E14.73892
G1 X86.066 Y86.618 E14.76298
G1 X86 Y86.991 E14.78188
G1 X86.001 Y122.975 E16.57713
G1 X86.087 Y123.372 E16.5974
G1 X86.323 Y123.743 E16.61933
G1 X87.015 Y124.169 E16.65987
G1 X87.867 Y124.813 E16.71316
G1 X88.529 Y125.578 E16.76363
G1 X89.167 Y126.461 E16.81798
G1 X89.677 Y127.108 E16.85908
G1 X90.216 Y127.734 E16.90029
G1 X90.786 Y128.338 E16.94173
G1 X91.396 Y128.934 E16.98427
G1 X91.996 Y129.461 E17.02411
G1 X92.633 Y129.983 E17.0652
G1 X93.301 Y130.481 E17.10677
G1 X93.982 Y130.945 E17.14788
G1 X94.685 Y131.383 E17.18921
G1 X95.402 Y131.784 E17.23019
G1 X96.142 Y132.156 E17.27151
G1 X96.895 Y132.495 E17.31271
G1 X97.64 Y132.791 E17.35271
G1 X98.449 Y133.077 E17.39552
G1 X99.237 Y133.316 E17.4366
G1 X100.041 Y133.52 E17.47798
G1 X100.868 Y133.691 E17.52011
G1 X101.73 Y133.831 E17.56368
G1 X102.499 Y133.921 E17.60231
G1 X103.466 Y133.988 E17.65067
G1 F1066.7 X103.986 Y133.953 E17.67992
G1 F969.7 X104.142 Y133.964 E17.68957
G1 F1021.3 X105.01 Y133.974 E17.74046
G1 F1016.9 X105.86 Y133.963 E17.79051
G1 F967.7 X106.021 Y133.951 E17.80049
G1 F1064.3 X106.687 Y133.981 E17.83799
G1 F1200 X107.521 Y133.919 E17.87972
G1 X108.296 Y133.823 E17.91868
M205 X10 Y10
G0 F6000 X108.358 Y134.218
M205 X8 Y8
G1 F1200 X109.249 Y134.076 E17.96369
G1 X110.045 Y133.911 E18.00425
G1 X110.866 Y133.701 E18.04653
G1 X111.674 Y133.457 E18.08864
G1 X112.496 Y133.17 E18.13207
G1 X113.256 Y132.863 E18.17297
G1 X114.026 Y132.518 E18.21506
G1 X114.783 Y132.137 E18.25734
G1 X115.519 Y131.727 E18.29937
G1 X116.236 Y131.281 E18.3415
G1 X116.931 Y130.807 E18.38347
G1 X117.61 Y130.299 E18.42578
G1 X118.263 Y129.766 E18.46783
G1 X118.871 Y129.228 E18.50834
G1 X119.496 Y128.619 E18.55187
G1 X120.078 Y128.002 E18.59419
G1 X120.629 Y127.361 E18.63636
G1 X121.153 Y126.701 E18.6784
G1 X121.957 Y125.591 E18.74678
G1 X122.567 Y124.982 E18.78978
G1 X123.173 Y124.515 E18.82795
G1 X123.923 Y124.071 E18.87144
G1 X124.308 Y123.54 E18.90416
G1 X124.396 Y123.04 E18.92949
G1 X124.396 Y86.977 E20.72868
G1 X124.284 Y86.468 E20.75468
G1 X123.964 Y85.96 E20.78463
G1 X123.273 Y85.542 E20.82492
G1 X122.378 Y84.868 E20.88082
G1 X121.8 Y84.195 E20.92508
G1 X121.152 Y83.294 E20.98045
G1 X120.63 Y82.636 E21.02235
G1 X120.078 Y81.999 E21.0644
G1 X119.495 Y81.381 E21.10679
G1 X118.87 Y80.768 E21.15047
G1 X118.263 Y80.23 E21.19093
G1 X117.606 Y79.693 E21.23327
G1 X116.931 Y79.189 E21.27529
G1 X116.237 Y78.716 E21.3172
G1 X115.515 Y78.27 E21.35953
G1 X114.778 Y77.858 E21.40166
G1 X114.025 Y77.478 E21.44374
G1 X113.257 Y77.133 E21.48574
G1 X112.496 Y76.83 E21.52661
G1 X111.674 Y76.539 E21.57011
G1 X110.868 Y76.299 E21.61207
G1 X110.043 Y76.089 E21.65454
G1 X109.217 Y75.915 E21.69665
G1 X108.314 Y75.768 E21.7423
G1 X107.55 Y75.678 E21.78068
G1 X106.68 Y75.612 E21.82421
G1 X105.85 Y75.588 E21.86563
G1 X104.991 Y75.6 E21.90849
G1 X104.119 Y75.589 E21.952
G1 X103.232 Y75.619 E21.99628
G1 X102.451 Y75.677 E22.03535
G1 X101.631 Y75.779 E22.07658
G1 X100.778 Y75.915 E22.11967
G1 X99.923 Y76.096 E22.16327
G1 X99.128 Y76.299 E22.20421
G1 X98.321 Y76.54 E22.24622
G1 X97.499 Y76.826 E22.28965
G1 X96.74 Y77.132 E22.33047
G1 X95.97 Y77.478 E22.37259
G1 X95.214 Y77.859 E22.41483
G1 X94.482 Y78.269 E22.45668
G1 X93.764 Y78.715 E22.49885
G1 X93.069 Y79.189 E22.54082
G1 X92.386 Y79.697 E22.58329
G1 X91.738 Y80.229 E22.62512
G1 X91.125 Y80.772 E22.66597
G1 X90.5 Y81.381 E22.70951
G1 X89.918 Y81.999 E22.75186
G1 X89.367 Y82.635 E22.79384
G1 X88.848 Y83.294 E22.83569
G1 X88.033 Y84.416 E22.90488
G1 X87.485 Y84.965 E22.94358
G1 X86.822 Y85.485 E22.98562
G1 X86.076 Y85.926 E23.02885
G1 X85.688 Y86.458 E23.0617
G1 X85.6 Y86.956 E23.08693
G1 X85.601 Y123.019 E24.88612
G1 X85.712 Y123.527 E24.91206
G1 X86.036 Y124.036 E24.94217
G1 X86.725 Y124.455 E24.9824
G1 X87.613 Y125.128 E25.03799
G1 X88.202 Y125.809 E25.08291
G1 X88.847 Y126.702 E25.13787
G1 X89.368 Y127.362 E25.17982
G1 X89.918 Y128.002 E25.22192
G1 X90.5 Y128.619 E25.26423
G1 X91.124 Y129.227 E25.3077
G1 X91.737 Y129.766 E25.34842
G1 X92.386 Y130.299 E25.39032
G1 X93.069 Y130.807 E25.43279
G1 X93.764 Y131.281 E25.47476
G1 X94.482 Y131.727 E25.51693
G1 X95.214 Y132.137 E25.55878
G1 X95.97 Y132.518 E25.60102
G1 X96.739 Y132.863 E25.64307
G1 X97.499 Y133.166 E25.68389
G1 X98.324 Y133.457 E25.72753
G1 X99.13 Y133.702 E25.76956
G1 X99.951 Y133.91 E25.81182
G1 X100.709 Y134.068 E25.85045
G1 X101.683 Y134.228 E25.89969
G1 X102.45 Y134.318 E25.93822
G1 X103.316 Y134.384 E25.98155
G1 X104.145 Y134.408 E26.02292
G1 X105.105 Y134.4 E26.07082
G1 X105.874 Y134.408 E26.10919
G1 X106.755 Y134.377 E26.15317
G1 X107.57 Y134.316 E26.19394
G1 X108.358 Y134.218 E26.23356
M205 X10 Y10
G1 F1800 E20.23356
G1 F480 Z0.375
G0 F6000 X105.925 Y133.468 Z0.375
M205 X8 Y8
G1 F480 Z0.3
G1 F1800 E26.23356
